X:9621
%9843
T:Lord Gordon's
S:1st time through Kevin Burke's performance on {\it Up Close}
N:Cf. O'Neills (Krassen), Ceol Rince vol. 1, The Fiddler's Fakebook, and The Irish Fiddle Book (Cranitch). Transcribed by Alan Ng
D:Kevin Burke, Up Close (Green Linnet 1052)
Z:id:ng-reels-9 transcribed by Alan Ng agng@students.wisc.edu April 29, 1996
E:11
M:C|
K:Cmaj
cA|GCEC G,CEA|GCEC EGcB|AD ~D2 BD ~D2|AD ~D2 AGEG|\
cBce dBcA|GECE G2 AB|cABG AFGE|DEFG AB::\
cd|e2 ce gece|ge ce g2 fe|defg afdB|cBAG EGAB|\
ce ~e2 dA ~A2|GECE G2 AB|cABG AFGE|DEFG AB::\
cd|eg ~g2 ecgc|eg ~g2 ecgc|fa ~a2 fdad|fa ~a2 fdad|\
efed ~c3 B|AG^FA GAce|gedB cAGE|DEFG AB::\
cA|G ~c3 cdec|G ~c3 cdec|dfef ~f3 e|dfef fgfd|\
efed cBcA|AG^FA GAce|gedB cAGE|DEFG AB::\
cd|eg ~g2 gecd|egge ~g2 fe|fade fade|fadf afde|\
f2 gf efge|fdcA GAce|gedB cAGE|DEFG AB:|**
\bigskip


